assets/parsing/telegram.svg

<svg width="24" height="24" viewBox="0 0 24 24" fill="none" xmlns="http://www.w3.org/2000/svg">
<path d="M20.3412 9.32001L6.34122 2.32001C5.78872 2.04502 5.16484 1.94712 4.55466 2.03966C3.94448 2.1322 3.37768 2.41068 2.93156 2.83712C2.48543 3.26357 2.18168 3.81723 2.06172 4.42262C1.94176 5.02801 2.01143 5.65566 2.26122 6.22001L4.66122 11.59C4.71568 11.7198 4.74373 11.8592 4.74373 12C4.74373 12.1408 4.71568 12.2802 4.66122 12.41L2.26122 17.78C2.05792 18.2367 1.97198 18.737 2.0112 19.2354C2.05042 19.7337 2.21357 20.2144 2.48581 20.6337C2.75805 21.053 3.13075 21.3976 3.57005 21.6362C4.00934 21.8748 4.50131 21.9999 5.00122 22C5.46946 21.9953 5.93071 21.886 6.35122 21.68L20.3512 14.68C20.8478 14.4302 21.2652 14.0473 21.5569 13.5741C21.8486 13.1009 22.003 12.5559 22.003 12C22.003 11.4441 21.8486 10.8992 21.5569 10.4259C21.2652 9.9527 20.8478 9.56982 20.3512 9.32001H20.3412ZM19.4512 12.89L5.45122 19.89C5.26739 19.9783 5.06096 20.0082 4.85961 19.9759C4.65827 19.9435 4.47163 19.8503 4.32474 19.7089C4.17784 19.5674 4.0777 19.3844 4.03775 19.1844C3.9978 18.9845 4.01995 18.777 4.10122 18.59L6.49122 13.22C6.52216 13.1483 6.54888 13.0748 6.57122 13H13.4612C13.7264 13 13.9808 12.8946 14.1683 12.7071C14.3559 12.5196 14.4612 12.2652 14.4612 12C14.4612 11.7348 14.3559 11.4804 14.1683 11.2929C13.9808 11.1054 13.7264 11 13.4612 11H6.57122C6.54888 10.9252 6.52216 10.8517 6.49122 10.78L4.10122 5.41001C4.01995 5.22297 3.9978 5.01556 4.03775 4.81558C4.0777 4.6156 4.17784 4.43261 4.32474 4.29115C4.47163 4.1497 4.65827 4.05654 4.85961 4.02416C5.06096 3.99178 5.26739 4.02174 5.45122 4.11001L19.4512 11.11C19.615 11.1939 19.7525 11.3214 19.8485 11.4785C19.9445 11.6355 19.9953 11.816 19.9953 12C19.9953 12.1841 19.9445 12.3645 19.8485 12.5216C19.7525 12.6786 19.615 12.8061 19.4512 12.89Z" fill="currentColor"/>
</svg>

<svg viewBox="0 0 24 24" fill="none" xmlns="http://www.w3.org/2000/svg">
    <path
        d="M20.341 9.32l-14-7a3 3 0 00-4.08 3.9l2.4 5.37a1.06 1.06 0 010 .82l-2.4 5.37A3 3 0 005.001 22a3.14 3.14 0 001.35-.32l14-7a3 3 0 000-5.36h-.01zm-.89 3.57l-14 7a1 1 0 01-1.35-1.3l2.39-5.37a2 2 0 00.08-.22h6.89a1 1 0 000-2h-6.89a2 2 0 00-.08-.22l-2.39-5.37a1 1 0 011.35-1.3l14 7a1 1 0 010 1.78z"
        fill="currentColor" />
</svg>
